X:1
T:Jesus Is Coming Again
T:Jesus Is Coming Again
T:Robert G. Staples
T:Robert G. Staples, 1891
T:Public Domain Courtesy of the Cyber Hymnal™
C:Robert G. Staples
Z:Public Domain
Z:Courtesy of the Cyber Hymnal™
%%score ( 1 2 ) ( 3 4 )
L:1/8
Q:1/4=75
M:6/8
K:Ab
V:1 treble 
V:2 treble 
V:3 bass 
V:4 bass 
V:1
 [CE]>[DF][CE] [CE][CA][EA] | [EB]>[EA][EB] [Ec]2 z | [Ec]>[EB][EA] [DB][DA][DF] | %3
w: 1.~Je- sus is com- ing, is|com- ing a- gain;|Shout the glad tid- ings, the|
w: 2.~Je- sus is com- ing, re-|deemed ones, be glad;|Put on the gar- ments of|
w: 3.~Je- sus is com- ing; O|sin- ner, a- wake!|Free is sal- va- tion to|
 [CE][EA]>[Ec] [EB]2 z | [CE]>[DF][CE] [CE][CA][EA] | [EB]>[EA][EB] [Ec]2 z | %6
w: good news pro- claim!|Je- sus is com- ing a|king on His throne,|
w: beau- ty— be clad;|Watch- ing and wai- ting be,|soon He will come,|
w: all who par- take;|Drink at the fount- ain that|flows full and free,|
 [Ee]>[Ed][Ec] [Ed][Ec][EB] | [DB]>[DF][DG] [CA]2 z || %8
w: Je- sus is com- ing to|wel- come His own.|
w: Come in His grand- eur to|wel- come you home.|
w: Mer- cy and par- don are|of- fered to thee.|
"^Refrain" [Fd]>[Fd][Fd] [Fd]!fermata![Ec][EB] | [EB]>[EA][EB] [Ec]2 z | %10
w: ||
w: Je- sus is com- ing, re-|peat the re- frain;|
w: ||
 [Ae]>[Ae][Ae] [Ae]"^riten."!fermata![Ec]E | [EG]>[EA][EB] !fermata![EA]2 z |] %12
w: ||
w: Je- sus is com- ing, is|com- ing a- gain.|
w: ||
V:2
 x6 | x6 | x6 | x6 | x6 | x6 | x6 | x6 || x6 | x6 | x5 E | x6 |] %12
V:3
 [A,,A,]>[A,,A,][A,,A,] [A,,A,][A,,A,][C,A,] | [E,G,]>[C,A,][E,G,] A,2 z | %2
 [A,,A,]>[B,,G,][C,A,] [D,F,][D,F,][D,A,] | [A,,A,][C,A,]>[A,,A,] [E,G,]2 z | %4
 [A,,A,]>[A,,A,][A,,A,] [A,,A,][A,,A,][C,A,] | [E,G,]>[C,A,][E,G,] A,2 z | %6
 [A,C]>[G,B,]A, [E,B,][E,A,][E,G,] | [E,G,]>[E,A,][E,B,] [A,,A,]2 z || %8
 [D,A,]>[D,A,][D,A,] [A,,A,]!fermata![A,,A,][E,G,] | [E,G,]>[C,A,][E,G,] A,2 z | %10
 [A,C]>[A,C][A,C] [A,C]A,[C,A,] | [E,B,]>[E,C][E,D] !fermata![A,,C]2 z |] %12
V:4
 x6 | x3 A,2 x | x6 | x6 | x6 | x3 A,2 x | x2 A, x3 | x6 || x6 | x3 A,2 x | x4 A, x | x6 |] %12

